X:1
T:Descend from heaven, celestial Dove
T:Jacob French, 1802
T:Unknown Author
T:An Anthem for Ordination Transcribed from Harmony of Harmony, 1802
%%score [ 1 2 3 4 ]
L:1/8
Q:1/4=120
M:4/4
K:D
V:1 treble nm="Treble" snm="Tr."
V:2 treble nm="Counter" snm="C."
V:3 treble-8 nm="Tenor" snm="T."
V:4 bass nm="Bass" snm="B."
V:1
 z4 | z8 | z8 | z8 | z4 z2 d2 | f4 d4 | c6 d2 | e4 d4 | c6 dc | B4 B4 | ^A6 B2 | B8- | B4 z4 | %13
 d4 d2 d2 | A6 A2 | (A2 e2) c4 | d6 e2 | f2 a2 g2 e2 | d2 d2 c2 de | fedc B4 | A4 A4 | A8 | z8 || %23
[K:F][M:2/2][Q:1/4=80] F6 A B | c2 d2 d2 c2 | c6 c>B | A2 A2 A2 A2 | A2 G2 F2 B2 | A2 c2 B2 A2 | %29
 A8 | z4"_No" A4 | %31
"_calm  con– tent     the        soul could find;  Dis –cord, that vul –ture    of   the   mind,  had banished   soft   re – pose." F>E FG A2 f2 | %32
 ed cB A2 A2 | F2 A2 G2 B2 | A2 A>B c2 d2 | c2 B2 A2 A2 | A8 ||[K:D][Q:1/4=120] z8 | z8 | z8 | z8 | %41
 z8 | z8 | z8 | z4 F4 | A2 A2 A2 d2 | c2 c2 c2 c2 | d2 d2 d2 e2 | f3 e d2 cB | A2 AG BG A2 | B8- | %51
 B4 z4 ||[K:G] B4 B2 B2 | d2 d2 e2 d2 | d6 dc | B2 B2 c2 c2 | B2 Bc d2 d2 | e2 d2 ^c2 c2 | d8 | %59
 z4 B4 | d3 d d2 d2 | (c3 e d3) d | d6 B2 | c2 c2 c2 c2 | B3 c d2 d2 | G3 c B2 A2 | B8 || %67
[M:2/4] z2 B2 | B3 d | B2 A2 | F2 A2 | B4 | d2 d d | d2 d c | Bc d2 | %75
"_bend, he leaves the shi–ning spheres.                                                                                                            with – draw  your  fires, And" d2 d2 | %76
 d2 d2 | ^c2 c2 | d4- | d2 z2 ||[K:Bb][M:4/4] z8 | z8 | z8 | z4 z2 B>c | dc B2 A2 B2 | %85
"_hide ye heav'ns in tears.                                Behold him now,                          a–scen–ding bright, With  all the ma–jes – ty of light, In" f2 e2 d2 d2 | %86
 d8- | d8 ||[K:G] z4 B4 | d2 d2 d2 z2 | z4 z2 A2 | B2 c2 d2 dc | B2 B2 B2 B2 | d2 d2 d2 d2 | %94
 d<B d2 c>B A>G | A8 | z4 z2 d>c | B2 B2 B<d A<c | B2 B2 B2 B2 | d2 B2 c2 d2 | c2 c>B A4 | %101
 z4"_roll                                                      the   glad                 ti  –  dings   round,                                                    roll" (d>edc | %102
 B>cBA G3) A | (B3 c) d2 dc | (BAG>B A2 dc | B4) (A>BAG | %106
 A2)"_the     glad                            ti  –  dings  round,        Long may our tongues with joy pro–claim  The  ho–nors  of  his   migh – ty" A2 (B4 | %107
 cd e2) dc BA | B8 | z8 | B4 A2 A2 | G6 A2 | (B2 c2) d4 | d6 d2 | d2 d2 c2 c2 | B4 A4 | %116
"_name,  And  songs of  triumph  raise.  Till   lost  in   flames                  in    ru    –   in    hurled,    in      ru    –  in          hurled," A6 G2 | %117
 d4 c4 | B4 A4 | B6 A2 | [GB]2 B2 (cded | cd) e2 d2 dc | c2 ec d2 d2 | (c2 B>c A4) | %124
"_Sinks  the  vast  fa – bric   of    the    world,     And   trem        –        bling     na  –  ture    dies,   And    trem – bling    na  –  ture    dies." B4 B2 B2 | %125
 A2 G2 F2 F2 | G6 A2 | (B2 Bc d2) dc | B2 BA Bc dc | B2 e2 d2 c2 | B8 |] %131
V:2
 z4 | z8 | %2
 z4 z2"_ce – les – tial    Dove,     Inspire our souls with  perfect  love,  And  tune our  fee – ble  lays." F2 | %3
 E4 (F2 G2) | A4 z2 A2 | A4 A4 | A6 A2 | B4 A4 | A6 A2 | F4 F4 | F6 F2 | F8- | F4 z4 | %13
"_Beam on our minds thy heav'n–ly fire, And teach our bosoms to aspire  To    no    –      bler   songs  of  praise.                  Long  did  the" F4 F2 F2 | %14
 F6 F2 | A4 A4 | A6 A2 | A2 F2 B2 A2 | A2 D2 E2 B2 | A4 G4 | F4 E4 | F8 | z8 || %23
[K:F][M:2/2] A6 E E | %24
"_world     in   dark – ness  groan,    how       dim  the  light  of      rea  – son  shone,  Be   –   fore   the  mor – ning   rose;" F3 F G2 F2 | %25
 E6 E2 | D2 D2 ^C2 C2 | DF ED C2 DF | E>F A2 GF E2 | F8 | z8 | z8 | %32
 z4 z2"_Dis –cord, that vul –ture    of   the   mind,  had banished   soft   re – pose." F2 | %33
 A2 F2 G2 G>F | E2 E2 E2 FG | A2 D2 ^C2 C2 | D8 ||[K:D] z8 | z8 | z8 | z8 | z8 | z8 | z8 | %44
 z4"_With steady care and anxious pain, They" D4 | F2 F2 F2 F2 | A2 A2 A2 A2 | %47
"_strove to find, but   all        in  vain, the world                                                                      But now a brighter scene ap–pears,     Ye" A2 A2 A2 A2 | %48
 A3 G F2 E2 | D2"_be – yond  the    grave." A,2 B,2 C2 | D8- | D4 z4 ||[K:G] D4 G2 G2 | %53
 B2 B2 A2 A2 | B6 A2 | %55
"_weeping mourners, dry your tears, For error's  course  is   run.            Now bright around you beams   the day,  And death's dark shadows" G2 G2 A2 AG | %56
 F2 F2 G2 G2 | A2 A2 A2 AG | F8 | z4 G4 | B3 c B2 B2 | (G2 c2 B2) c2 | B6 G2 | A2 A2 A2 A2 | %64
"_melt  a –way  be – fore  the  gos – pel  sun.                  Be– hold,   the  Son  of  God de scends;  Pro–strate be –fore  him, Ye   hea – vens" F3 F G2 D2 | %65
 E3 E D2 D2 | D8 ||[M:2/4] z2 D2 | G3 F | E2 E2 | D2 D2 | D4 | G2 G G | F2 G E | F2 G2 | %75
"_bend, he leaves the shi – ning  spheres.                  See, on mount Calvary he expires,                                                                       And" [FA]2 A2 | %76
 B2 B2 | A2 A2 | [FA]4- | [FA]2 z2 ||[K:Bb][M:4/4] D4 G2 G2 | A2 A2 G2 ^F2 | G6 z2 | z8 | %84
 z4 z2 D2 | %85
"_hide ye heav'ns in tears.                                 Behold him now,                          a–scen–ding bright, With  all the ma–jes –ty of light, In" B2 G2 ^F2 F2 | %86
 G8- | G8 ||[K:G] z4 D4 | G2 G2 F2 z2 | z4 z2 D2 | G2 A2 B2 BA | G2 G2 G2 G2 | A2 A2 B2 B2 | %94
"_fla  – ming     glo   –    ries  crowned.                   And    now   he    treads   the  starry  plain, While   shouting   seraphs     in  their   train" B<G B2 A>G F>E | %95
 F8 | z4 z2 G2 | G2 G2 F<G A<F | G2 G2 G2 G2 | B2 G2 A2 B2 | A2 G2 F4 | z8 | z4"_roll" (D>EDC | %103
 B,>CB,A, G,2)"_the" G,2 |"_glad              ti  –  dings    round,         roll," G4 FG FE | %105
 D4 (F>GFE | %106
"_roll   the   glad            ti   –  dings  round.        Long may our tongues with joy pro–claim  The  ho–nors  of  his   migh – ty" F4) G3 G | %107
 (G2 AG) F2 D2 | G8 | z8 | G4 F2 E2 | D6 D2 | E4 F4 | G6 A2 | G2 GF E2 [EA]2 | (F2 G2) E4 | %116
"_name,  And  songs of  triumph  raise.  Till   lost  in   flames                  in     ru    –   in   hurled,   in        ru    –   in        hurled," F6 E2 | %117
 D4 A4 | G4 D4 | D6 D2 | G2 G2 A4- | A2 B2 A2 GF | GE CE D2 G2 | (F2 E2 D4) | %124
"_Sinks  the  vast  fa – bric   of    the    world,    And  trem –bling  na – ture,    trem – bling  na – ture,       trem – bling  na  –   ture   dies." D4 D2 D2 | %125
 C2 B,2 A,2 A,2 | B,6 D2 | D2 D2 G2 G2 | F2 F2 G2 F2 | EF G2 D2 D2 | D8 |] %131
V:3
 z4 | z8 | z4 z2 d2 | c4 (3(B2 A2 B2) | A4 z2 A2 | d4 f4 | e6 f2 | g4 f4 | e6 f2 | d4 d4 | c6 B2 | %11
 B8- | B4 z4 | A4 A2 A2 | d6 d2 | e4 e4 | f6 e2 | d2 d2 e2 e2 | f2 g2 a2 g2 | f4 e4 | d4 c4 | d8 | %22
 z8 ||[K:F][M:2/2] d6 c B | A3 A B2 A2 | G6 GA | F2 F2 E2 E2 | F2 G2 A2 F2 | c2 A2 d2 ^c2 | d8 | %30
 z4"_No" d4 | %31
"_calm  con– tent     the        soul could find; Dis –cord, that vul –ture    of   the   mind,  had banished   soft   re – pose." A>B AG FG AB | %32
 cd e2 d2 d2 | c2 A2 B2 G2 | c2 c>B A2 B2 | A2 G2 F2 E2 | D8 ||[K:D] z8 | z8 | z8 | z8 | z8 | z8 | %43
 z8 | z4 A4 | d2 d2 d2 d2 | e2 e2 e2 e2 | f2 f2 f2 e2 | d2 c2 B2 AG | F2 E2 DE F2 | G8- | G4 z4 || %52
[K:G] G4 d2 d2 | g2 f2 e2 f2 | g6 f2 | e2 e2 e2 e2 | d2 dc B2 G2 | c2 d2 e2 e2 | d8 | z4 d4 | %60
 f3 a g2 f2 | (e3 g f3) a | g6 d2 | e2 e2 e2 e2 | d3 c B2 A2 | B3 A G2 F2 | G8 ||[M:2/4] z2 G2 | %68
 d3 B | G2 c2 | A2 F2 | G4 | B2 B B | A2 B c | dc B2 | %75
"_bend, he leaves the shi – ning  spheres." A2 d2 | g2 f2 | e>d e2 | d4- | d2 z2 || %80
[K:Bb][M:4/4] z8 | z8 | z4 z2"_Ye   sun   and  stars  with – draw  your fires,  And" de | %83
 f2 f>e d2 d>c | Bc de f2 g2 | %85
"_hide ye heav'ns in tears.                                Behold him now, ascending bright,                         With  all  the ma–jes – ty of light,  In" d2 c2 B2 A2 | %86
 G8- | G8 ||[K:G] z4 G4 | B2 B2 A2 A2 | B2 c2 d2 z2 | z4 z2 Bc | d2 d2 e2 e2 | f2 f2 g2 g2 | %94
 f<d gf e>d ^c>e | d8 | z4 z2 B>c | d2 d2 d<B e<c | d2 d2 d2 d2 | g2 d2 ef g2 | f2 e2 d4 | z8 | %102
"_roll                                                           the  glad           ti  –  dings     round," (d>edc B>cBA | %103
 G3) A (B3 c) | d2 d2 (dcBA | GABc d4) | %106
"_roll                       the    glad            ti  – dings    round,       Long may our tongues with joy pro–claim  The  ho–nors  of  his   migh – ty" (d>edc d3) d | %107
 edcB AG F2 | G8 | z8 | d4 d2 c2 | B6 A2 | G4 A4 | B6 A2 | B2 B2 c2 c2 | d4 ^c4 | %116
"_name,  And  songs of  triumph  raise.  Till   lost  in   flames                  in    ru    –   in       hurled," d6 c2 | %117
 B4 e4 | d4 f4 | g6 f2 | e2 e2 (edcd | ef) g2 fe ^d2 | (ecAc BAGB | AGFE D4) | %124
"_Sinks  the  vast  fa – bric   of    the    world,     And   trem      –         –         –         –         –          bling     na       –         –       ture    dies." G4 G2 G2 | %125
 E2 E2 D2 D2 | D6 D2 | (G2 GA B2 Bc | d2 de dc) BA | (G2 cB AG) F2 | G8 |] %131
V:4
"_De – scend     from heav'n," [D,D]4 | ([F,A,]3 [E,G,] [D,F,]2) [A,,E,]2 | D,6 z2 | z8 | %4
 z4 z2 D,2 | D,4 D,4 | A,6 D,2 | G,4 D,4 | A,6 F,2 | B,4 B,4 | F,6 F,2 | B,,8- | B,,4 z4 | %13
 D,4 D,2 D,2 | F,6 F,2 | A,4 A,4 | D6 A,2 | D,2 F,2 G,2 A,2 | D2 B,2 A,2 B,C | D4 G,4 | A,4 A,,4 | %21
 D,8 | z8 ||[K:F][M:2/2] D,6 A, G, | F,>E,D, D, G,,2 A,,B,, | C,6 A,,2 | D,2 D,2 A,,2 A,,2 | %27
 D,2 E,2 F,2 D,2 | A,2 F,2 G,2 A,2 | D,8 | z4 D,4 | %31
"_calm  con– tent     the        soul could find;  Dis –cord, that vul –ture    of   the   mind,  had banished   soft   re – pose.                   Nor" F,>G, F,E, D,E, F,G, | %32
 A,2 A,,2 D,2 D,2 | F,2 F,2 E,2 E,>D, | C,2 E,2 A,,2 D,E, | F,2 G,2 A,2 A,,2 | D,8 || %37
[K:D] z4 [D,D]4 | %38
"_could the sa –ges  e'er  explore  E –ter –ni –ty's untrodden shore, No light their systems gave." [F,A,]2 [F,A,][E,G,] [D,F,]2 [D,F,]2 | %39
 [E,G,]2 [E,G,][D,F,] [C,E,]2 [C,E,]2 | [D,F,]2 [D,F,][C,E,] [B,,D,]2 [B,,D,]2 | %41
 [C,E,]2 [C,E,][B,,D,] [A,,C,]2 [A,,C,]2 | [B,,D,]2 [B,,D,F,]2 [E,,E,]2 [E,,E,]2 | [A,,A,]8 | %44
 z4 D,4 | D,2 D,2 D,2 D,2 | A,2 A,2 A,2 A,2 | D2 D2 D2 A,2 | D,E, F,2 B,,2 C,2 | %49
 D,2 C,2 B,,2 A,,2 | G,,8- | G,,4 z4 ||[K:G] [G,,G,]4 G,2 G,2 | G,2 B,2 C2 D2 | G,6 D,2 | %55
 E,2 E,2 A,2 A,2 | B,2 B,A, G,2 B,2 | A,2 A,2 A,,2 A,,2 | D,8 | z4 G,4 | G,3 F, G,2 B,2 | %61
 (C4 D3) D | G,6 B,2 | A,2 A,2 A,2 A,2 | B,3 A, G,2 F,2 | E,3 C, D,2 D,2 | G,,8 ||[M:2/4] z2 G,2 | %68
 G,3 D, | E,2 C,2 | D,2 D,2 | G,,4 | G,2 G, G, | D,2 G, A, | B,A, G,2 | %75
"_bend, he leaves the shi – ning  spheres.                See, on mount Calvary he expires,    Ye   sun   and  stars  with – draw  your fires, And" D,2 F,2 | %76
 G,2 G,2 | A,2 A,,2 | D,4- | D,2 z2 ||[K:Bb][M:4/4] G,4 G,2 G,2 | [D,D]2 [D,D]2 D,2 D,2 | G,6 B,2 | %83
 F,2 F,2 G,2 G,A, | B,A, G,2 D,2 G,A, | %85
"_hide ye heav'ns in tears.                                Behold him now, ascending bright,                         With  all  the ma–jes – ty of light,  In" B,2 C2 D2 D,2 | %86
 [G,,G,]8- | [G,,G,]8 ||[K:G] z4 G,4 | G,2 G,2 D,2 D,2 | G,2 A,2 B,2 z2 | z4 z2 G,2 | %92
 G,2 G,2 E,2 E,2 | D,2 D,2 G,2 G,2 | B,2 G,2 A,2 A,,2 | D,8 | z4 z2 G,2 | G,2 G,2 B,<G, C<A, | %98
 G,2 G,2 G,2 G,2 | G,2 B,2 A,2 G,2 | A,2 A,2 D,4 | %101
"_roll                                                   the  glad                 ti   –    dings   round,            roll                            the  glad            ti  –  dings" (D,>E,D,C, B,,>C,B,,A,, | %102
 G,,3) A,, (B,,2 D,2) | G,,2 G,,2 G,,4 | (G,,A,,B,,C, D,3) D, | G,4 D,2 D,2 | %106
"_round,         roll    the   glad            ti  –  dings    round,      Long may our tongues with joy pro–claim  The  ho–nors  of  his   migh – ty" D,4 G,3 G, | %107
 C,4 D,2 D,2 | G,,8 | z8 | G,4 D,2 D,2 | G,6 F,2 | E,4 D,4 | G,6 [D,F,]2 | G,2 G,2 A,2 A,2 | %115
 (B,2 G,2) A,4 | %116
"_name,  And  songs of  triumph  raise.  Till   lost  in   flames                 in     ru    –   in       hurled," D,6 E,F, | %117
 G,4 [A,C]4 | D4 D,4 | G,6 D,2 | E,2 E,2 A,4- | A,2 G,2 D,C, B,,2 | (C,3 A,, B,,3 G,, | %123
 A,,2 B,,C, D,4) | %124
"_Sinks  the  vast  fa – bric   of    the    world,    And  trem–bling  na – ture      dies,                      And      trem – bling    na  –  ture    dies" G,,4 G,,2 G,,2 | %125
 C,2 C,2 D,2 D,2 | G,,6 D,2 | B,,2 G,,2 G,2 G,2 | (D,2 B,,2 G,,2) D,2 | E,2 C,2 D,2 D,2 | G,,8 |] %131

